icons/24x24_header_outline.svg

<svg width="24" height="24" fill="none" xmlns="http://www.w3.org/2000/svg"><path fill-rule="evenodd" clip-rule="evenodd" d="M19 5h2V3h-6v2h2v14h-2v2h6v-2h-2V5ZM9 9h4V7H3v2h4v10h2V9Z" fill="#000"/></svg>

<svg xmlns="http://www.w3.org/2000/svg" width="24" height="24" viewBox="0 0 24 24">
  <path fill-rule="evenodd" d="M19,5 L21,5 L21,3 L15,3 L15,5 L17,5 L17,19 L15,19 L15,21 L21,21 L21,19 L19,19 L19,5 Z M9,9 L13,9 L13,7 L3,7 L3,9 L7,9 L7,19 L9,19 L9,9 Z"/>
</svg>
